logos/tv.bbcpersian.svg

<?xml version="1.0" encoding="UTF-8" standalone="no"?>
<!-- Created with Inkscape (http://www.inkscape.org/) -->

<svg
   xmlns:dc="http://purl.org/dc/elements/1.1/"
   xmlns:cc="http://creativecommons.org/ns#"
   xmlns:rdf="http://www.w3.org/1999/02/22-rdf-syntax-ns#"
   xmlns:svg="http://www.w3.org/2000/svg"
   xmlns="http://www.w3.org/2000/svg"
   xmlns:inkscape="http://www.inkscape.org/namespaces/inkscape"
   version="1.0"
   width="100"
   height="19"
   viewBox="0 0 900 172.241"
   id="svg2"
   xml:space="preserve"
   style="fill-rule:evenodd"><metadata
   id="metadata33"><rdf:RDF><cc:Work
       rdf:about=""><dc:format>image/svg+xml</dc:format><dc:type
         rdf:resource="http://purl.org/dc/dcmitype/StillImage" /></cc:Work></rdf:RDF></metadata>
 <defs
   id="defs4">
  <style
   type="text/css"
   id="style6" />
 
  <metadata
   id="CorelCorpID_0Corel-Layer" />
  
  
  
  
  
  
  
  
  
  
  
 </defs>
 <g
   transform="matrix(1.0526318,0,0,1.0526318,-3.2634243,-9.0653411)"
   id="g3198"><path
     d="m 861.20259,172.20683 0,-139.778809 -148.68938,0 0,139.778809 148.68938,0 z M 827.32272,72.570555 c -11.45657,-6.449196 -22.91304,-9.794257 -33.63673,-9.794257 -11.45877,0 -20.96443,3.583642 -28.27718,10.752105 -7.5536,6.926408 -11.45657,15.529863 -11.45657,26.283117 0,10.27261 3.90065,19.11237 11.21342,26.28082 7.80017,6.69007 17.06156,10.03396 28.27489,10.03396 11.94286,0 23.64592,-3.58478 35.10019,-10.74981 l 0,15.05496 c -10.72598,5.73337 -22.66989,8.60006 -35.83413,8.60006 -11.20998,0 -20.47469,-2.14859 -28.27488,-6.44805 -7.55588,-4.54262 -13.64833,-10.51691 -18.28179,-17.92391 -4.38695,-8.12286 -6.82642,-16.24457 -6.82642,-24.848069 0,-14.33681 5.12095,-26.044467 15.60029,-35.603521 10.23854,-9.555629 22.91649,-14.57546 37.78284,-14.57546 10.72818,0 22.18246,2.629221 34.61276,8.123986 l 0,14.814108 0.002,0 0.001,0 -9e-5,-3.9e-5 z"
     inkscape:connector-curvature="0"
     id="path10"
     style="fill:#000000" /><path
     d="m 519.45376,32.420079 -148.73244,0 0,139.820911 148.73244,0 0,-139.820911 0,0 z m -103.38251,117.353111 0,-96.558913 25.84563,0 c 8.28988,0 14.38685,0.955563 19.01926,3.106432 4.63238,2.15201 8.28874,5.258432 10.48389,9.081824 2.4372,3.58592 3.65749,7.887652 3.90179,12.905206 -0.24429,9.561312 -5.11982,16.254803 -15.36059,20.556507 7.55815,1.194174 13.16538,4.063134 17.31265,8.603474 4.1438,4.30174 6.34012,9.79541 6.34012,16.01395 0,5.01756 -1.21803,9.56132 -3.90179,13.14606 -2.68263,4.06085 -6.34012,7.17183 -11.21563,9.56244 -5.11868,2.39061 -11.45877,3.58478 -19.01811,3.58478 l -33.40717,0 0,-0.002 0,0 -5e-5,5.1e-4 z"
     inkscape:connector-curvature="0"
     id="path12"
     style="fill:#000000" /><path
     d="m 442.40585,65.384113 -12.19051,0 0,29.152067 9.50905,0 c 7.315,0 12.67909,-1.436188 15.84803,-4.061993 3.16779,-2.867822 4.87666,-6.691213 4.87666,-10.991807 0,-9.320434 -6.09696,-14.098258 -18.04323,-14.098258 l 0,0 0,-9e-6 z"
     inkscape:connector-curvature="0"
     id="path14"
     style="fill:#000000" /><path
     d="m 443.38188,106.95739 -13.16424,0 0,30.34847 13.89597,0 c 7.315,0 12.67795,-0.47495 15.84803,-1.43164 2.68263,-1.19531 4.87553,-2.86896 6.581,-5.25844 1.46459,-2.62808 2.19518,-5.25843 2.43947,-8.366 -0.24429,-3.34276 -1.2203,-5.96858 -2.68263,-7.88424 -1.70888,-2.62695 -4.14493,-4.53808 -7.315,-5.49478 -3.41207,-1.43277 -8.77731,-1.9134 -15.60258,-1.9134 l 0,0 -2e-5,3e-5 z"
     inkscape:connector-curvature="0"
     id="path16"
     style="fill:#000000" /><path
     d="m 690.32482,32.40984 -148.6932,0 0,139.80082 148.6932,0 0,-139.80082 0,0 0,0 z m -103.35571,117.33685 0,-96.543608 25.83884,0 c 8.2876,0 14.38226,0.954427 19.01237,3.106431 4.63237,2.15201 8.28874,5.257303 10.48274,9.080685 2.43606,3.584782 3.65636,7.885385 3.89951,12.90291 -0.24315,9.560174 -5.11755,16.252507 -15.35599,20.553158 7.55587,1.194174 13.16203,4.063134 17.30805,8.602334 4.14381,4.30174 6.33784,9.79426 6.33784,16.01051 0,5.01869 -1.2169,9.56017 -3.89951,13.14606 -2.68263,4.05972 -6.33898,7.16956 -11.21228,9.56017 -5.11867,2.38947 -11.45656,3.58478 -19.01352,3.58478 l -33.39808,0 0,-0.003 0,0 3e-5,-2e-5 z"
     inkscape:connector-curvature="0"
     id="path18"
     style="fill:#000000" /><path
     d="m 613.38696,65.403442 -12.1905,0 0,29.152067 9.51131,0 c 7.31386,0 12.6768,-1.436188 15.84803,-4.061993 3.16779,-2.867821 4.87553,-6.691213 4.87553,-10.991807 0,-9.320434 -6.09696,-14.098258 -18.04438,-14.098258 l 0,0 1e-5,-9e-6 z"
     inkscape:connector-curvature="0"
     id="path20"
     style="fill:#000000" /><path
     d="m 614.36395,106.97653 -13.16424,0 0,30.34847 13.89597,0 c 7.31386,0 12.67795,-0.47495 15.84803,-1.43278 2.68262,-1.19417 4.87553,-2.86782 6.581,-5.25843 1.46345,-2.62694 2.19631,-5.2573 2.43833,-8.36486 -0.24316,-3.34277 -1.22031,-5.96971 -2.68263,-7.88425 -1.70774,-2.62694 -4.1438,-4.53693 -7.315,-5.49477 -3.4098,-1.43277 -8.77618,-1.9134 -15.60144,-1.9134 l -2e-5,2e-5 z"
     inkscape:connector-curvature="0"
     id="path22"
     style="fill:#000000" /><g
     transform="translate(0,1.186654)"
     id="g3192"><polygon
       points="337.824,15.6548 326.71,35.3635 311.655,21.2784 323.652,0 323.652,0 "
       transform="matrix(0.956891,0,0,0.956891,6.9159444e-4,7.4254161)"
       id="polygon24"
       style="fill:#000000" /><path
       d="m 212.27548,62.531046 c 8.94093,17.952328 16.1128,38.015744 13.89147,58.380204 -2.23041,20.45537 -18.80673,36.58185 -37.18631,44.06158 l -17.95233,-10.82818 c 15.45828,-10.08056 35.84437,-19.18059 40.07115,-39.00421 2.79624,-13.112 -5.35501,-24.342451 -11.66221,-35.270624 -0.71354,-1.23394 -2.18495,-3.421163 -2.83259,-4.651696 l 15.67081,-12.687035 10e-6,-3.9e-5 z"
       inkscape:connector-curvature="0"
       id="path26"
       style="fill:#000000" /><path
       d="m 113.57408,65.951071 c 0.05,6.202634 0.73401,11.506518 1.58504,17.181934 0.74081,4.960743 2.5315,8.242152 8.34214,8.379638 7.36841,0.172706 7.73881,-5.24026 8.47963,-11.008839 0.46357,-3.605231 0.66128,-7.294543 0.75559,-10.778229 l 14.31978,-3.063257 c 0.12271,5.643619 -0.38746,13.895971 2.13269,19.466895 1.29756,2.873505 4.25855,5.739059 7.5911,5.752695 3.36094,0.0125 6.08674,-2.561043 7.12752,-5.584531 1.68956,-4.903933 1.40323,-12.837076 1.24303,-16.89104 l 15.17428,-3.384811 c 0.57947,9.469279 1.03169,21.543923 -2.55195,31.149577 -3.03713,8.138757 -9.11591,14.798127 -18.39317,14.798127 -5.59931,0 -13.75053,-2.35879 -18.09433,-6.12424 -2.40084,1.61117 -7.53089,6.05493 -16.41958,6.05493 -8.88981,0 -14.43346,-3.53478 -18.30906,-6.5185 -12.054148,8.85004 -27.397704,4.95961 -40.802886,8.16262 -3.315493,0.79309 -4.830079,1.43732 -4.434673,4.76759 0.09658,0.82149 3.914287,2.10996 4.833487,2.4122 6.268535,2.07019 13.592636,1.49754 19.530528,4.92439 5.366378,3.09848 5.732236,9.43632 4.310822,14.46187 -2.442875,8.63529 -9.162499,15.32193 -17.249013,19.30327 -9.194306,4.52444 -19.80439,4.80281 -29.853085,4.80281 -7.788806,0 -16.96606,0.18407 -24.253838,-3.05871 C 9.8517294,157.24772 3.1468325,148.80897 1.2652977,139.36245 -2.0229338,122.85311 1.3357434,105.52343 8.4598549,90.385608 L 20.96288,94.446462 c -1.477086,4.719864 -3.857477,10.902048 -5.126639,17.447858 -1.591846,8.2217 -1.327113,18.89314 5.152771,25.16728 5.561805,5.38569 14.308487,7.35023 21.879122,7.67973 8.770499,0.38063 19.057824,-0.40676 26.218335,-5.85836 1.179397,-0.89648 4.952791,-3.75067 4.843715,-5.2198 -0.06249,-0.83285 -1.411185,-0.69082 -2.405385,-0.72832 -1.103276,-0.0432 -2.297438,-0.0659 -3.415488,-0.2227 -7.299088,-1.02715 -14.97544,-2.02134 -19.790707,-8.09672 -4.736907,-11.25429 0.651055,-26.184275 12.324565,-30.952942 10.971329,-4.481264 24.185611,0.709003 34.613905,-4.327874 0.56584,-0.271557 2.177005,-0.968058 2.537189,-1.477086 1.436188,-2.030427 1.38619,-13.948217 1.81682,-17.917114 l 13.963047,-3.989278 -5e-5,-6.5e-5 z"
       inkscape:connector-curvature="0"
       id="path28"
       style="fill:#000000" /><path
       d="m 263.35432,10.170526 c -0.14203,32.626634 -0.81808,65.263507 -0.0716,97.846894 0.11704,5.10958 0.0932,11.64517 1.62593,16.58426 1.98271,6.37761 7.59679,7.3025 29.07026,7.3025 7.56951,0 19.74075,0.684 26.18991,-4.84598 3.06553,-2.63035 4.97893,-6.5151 4.771,-10.56351 -7.97514,1.94522 -21.60526,6.34353 -27.17733,-2.67125 -11.02137,-17.834154 -5.55385,-45.2864 7.30137,-60.518574 8.47735,-8.442133 22.51306,-2.529235 27.85452,6.768473 8.48531,14.9186 8.87503,32.497071 8.68415,49.176831 -0.14202,12.29624 -0.31473,20.70875 -8.12626,29.86103 -4.77782,5.59816 -11.27926,9.80449 -18.32839,11.74516 -6.38784,1.75774 -16.08668,1.65434 -28.43622,1.65434 -11.83377,0 -17.72277,0.1818 -23.1403,-1.68274 -9.12159,-3.13825 -16.33997,-11.65196 -16.56723,-21.47464 -0.60219,-26.06944 -0.82716,-52.184434 -0.78285,-78.256174 0.0102,-6.012892 -0.61584,-12.063238 -0.77491,-18.084091 -0.11475,-4.392637 -0.34541,-8.328512 -0.69196,-12.103045 l 18.59996,-10.73957 -6e-5,8.6e-5 z m 47.83718,63.580718 c -5.50499,5.261848 -7.83312,15.528714 -3.45525,22.475647 2.1895,3.473428 11.58948,1.956574 15.61847,-0.17725 0.63515,-5.770876 -0.25451,-11.80306 -1.54867,-17.525076 -1.09986,-4.865303 -7.15252,-8.084217 -10.6146,-4.773269 l 5e-5,-5.2e-5 z"
       inkscape:connector-curvature="0"
       id="path30"
       style="fill:#000000" /></g></g>
</svg>

<?xml version="1.0" encoding="UTF-8" standalone="no"?>
<!-- Creator: CorelDRAW -->
<svg
   xmlns:dc="http://purl.org/dc/elements/1.1/"
   xmlns:cc="http://creativecommons.org/ns#"
   xmlns:rdf="http://www.w3.org/1999/02/22-rdf-syntax-ns#"
   xmlns:svg="http://www.w3.org/2000/svg"
   xmlns="http://www.w3.org/2000/svg"
   xmlns:sodipodi="http://sodipodi.sourceforge.net/DTD/sodipodi-0.dtd"
   xmlns:inkscape="http://www.inkscape.org/namespaces/inkscape"
   xml:space="preserve"
   width="100"
   height="19"
   style="fill-rule:evenodd"
   viewBox="0 0 900 172.241"
   id="svg2"
   sodipodi:version="0.32"
   inkscape:version="0.46"
   sodipodi:docname="BBC persian.svg"
   inkscape:output_extension="org.inkscape.output.svg.inkscape"
   version="1.0"><metadata
   id="metadata33"><rdf:RDF><cc:Work
       rdf:about=""><dc:format>image/svg+xml</dc:format><dc:type
         rdf:resource="http://purl.org/dc/dcmitype/StillImage" /></cc:Work></rdf:RDF></metadata><sodipodi:namedview
   inkscape:window-height="712"
   inkscape:window-width="1024"
   inkscape:pageshadow="2"
   inkscape:pageopacity="0.0"
   guidetolerance="10.0"
   gridtolerance="10.0"
   objecttolerance="10.0"
   borderopacity="1.0"
   bordercolor="#666666"
   pagecolor="#ffffff"
   id="base"
   showgrid="false"
   inkscape:zoom="6.4895391"
   inkscape:cx="52.133967"
   inkscape:cy="9.3582746"
   inkscape:window-x="-4"
   inkscape:window-y="-4"
   inkscape:current-layer="svg2" />
 <defs
   id="defs4"><inkscape:perspective
   sodipodi:type="inkscape:persp3d"
   inkscape:vp_x="0 : 150 : 1"
   inkscape:vp_y="0 : 1000 : 0"
   inkscape:vp_z="900 : 150 : 1"
   inkscape:persp3d-origin="450 : 100 : 1"
   id="perspective35" />
  <style
   type="text/css"
   id="style6">
   
    .fil0 {fill:black}
   
  </style>
 
  <metadata
   id="CorelCorpID_0Corel-Layer" />
  
  
  
  
  
  
  
  
  
  
  
 </defs>
 <g
   id="g3198"
   transform="matrix(1.0526318,0,0,1.0526318,-3.2634243,-9.0653411)"><path
     class="fil0"
     d="M 861.20259,172.20683 L 861.20259,32.428021 L 712.51321,32.428021 L 712.51321,172.20683 L 861.20259,172.20683 z M 827.32272,72.570555 C 815.86615,66.121359 804.40968,62.776298 793.68599,62.776298 C 782.22722,62.776298 772.72156,66.35994 765.40881,73.528403 C 757.85521,80.454811 753.95224,89.058266 753.95224,99.81152 C 753.95224,110.08413 757.85289,118.92389 765.16566,126.09234 C 772.96583,132.78241 782.22722,136.1263 793.44055,136.1263 C 805.38341,136.1263 817.08647,132.54152 828.54074,125.37649 L 828.54074,140.43145 C 817.81476,146.16482 805.87085,149.03151 792.70661,149.03151 C 781.49663,149.03151 772.23192,146.88292 764.43173,142.58346 C 756.87585,138.04084 750.7834,132.06655 746.14994,124.65955 C 741.76299,116.53669 739.32352,108.41498 739.32352,99.811481 C 739.32352,85.474671 744.44447,73.767014 754.92381,64.20796 C 765.16235,54.652331 777.8403,49.6325 792.70665,49.6325 C 803.43483,49.6325 814.88911,52.261721 827.31941,57.756486 L 827.31941,72.570594 L 827.32167,72.570594 L 827.32281,72.570594 L 827.32272,72.570555 z"
     id="path10"
     style="fill:#000000" /><path
     class="fil0"
     d="M 519.45376,32.420079 L 370.72132,32.420079 L 370.72132,172.24099 L 519.45376,172.24099 L 519.45376,32.420079 L 519.45376,32.420079 z M 416.07125,149.77319 L 416.07125,53.214277 L 441.91688,53.214277 C 450.20676,53.214277 456.30373,54.16984 460.93614,56.320709 C 465.56852,58.472719 469.22488,61.579141 471.42003,65.402533 C 473.85723,68.988453 475.07752,73.290185 475.32182,78.307739 C 475.07753,87.869051 470.202,94.562542 459.96123,98.864246 C 467.51938,100.05842 473.12661,102.92738 477.27388,107.46772 C 481.41768,111.76946 483.614,117.26313 483.614,123.48167 C 483.614,128.49923 482.39597,133.04299 479.71221,136.62773 C 477.02958,140.68858 473.37209,143.79956 468.49658,146.19017 C 463.3779,148.58078 457.03781,149.77495 449.47847,149.77495 L 416.0713,149.77495 L 416.0713,149.77268 L 416.0713,149.77268 L 416.07125,149.77319 z"
     id="path12"
     style="fill:#000000" /><path
     class="fil0"
     d="M 442.40585,65.384113 L 430.21534,65.384113 L 430.21534,94.53618 L 439.72439,94.53618 C 447.03939,94.53618 452.40348,93.099992 455.57242,90.474187 C 458.74021,87.606365 460.44908,83.782974 460.44908,79.48238 C 460.44908,70.161946 454.35212,65.384122 442.40585,65.384122 L 442.40585,65.384122 L 442.40585,65.384113 z"
     id="path14"
     style="fill:#000000" /><path
     class="fil0"
     d="M 443.38188,106.95739 L 430.21764,106.95739 L 430.21764,137.30586 L 444.11361,137.30586 C 451.42861,137.30586 456.79156,136.83091 459.96164,135.87422 C 462.64427,134.67891 464.83717,133.00526 466.54264,130.61578 C 468.00723,127.9877 468.73782,125.35735 468.98211,122.24978 C 468.73782,118.90702 467.76181,116.2812 466.29948,114.36554 C 464.5906,111.73859 462.15455,109.82746 458.98448,108.87076 C 455.57241,107.43799 450.20717,106.95736 443.3819,106.95736 L 443.3819,106.95736 L 443.38188,106.95739 z"
     id="path16"
     style="fill:#000000" /><path
     class="fil0"
     d="M 690.32482,32.40984 L 541.63162,32.40984 L 541.63162,172.21066 L 690.32482,172.21066 L 690.32482,32.40984 L 690.32482,32.40984 L 690.32482,32.40984 z M 586.96911,149.74669 L 586.96911,53.203082 L 612.80795,53.203082 C 621.09555,53.203082 627.19021,54.157509 631.82032,56.309513 C 636.45269,58.461523 640.10906,61.566816 642.30306,65.390198 C 644.73912,68.97498 645.95942,73.275583 646.20257,78.293108 C 645.95942,87.853282 641.08502,94.545615 630.84658,98.846266 C 638.40245,100.04044 644.00861,102.9094 648.15463,107.4486 C 652.29844,111.75034 654.49247,117.24286 654.49247,123.45911 C 654.49247,128.4778 653.27557,133.01928 650.59296,136.60517 C 647.91033,140.66489 644.25398,143.77473 639.38068,146.16534 C 634.26201,148.55481 627.92412,149.75012 620.36716,149.75012 L 586.96908,149.75012 L 586.96908,149.74671 L 586.96908,149.74671 L 586.96911,149.74669 z"
     id="path18"
     style="fill:#000000" /><path
     class="fil0"
     d="M 613.38696,65.403442 L 601.19646,65.403442 L 601.19646,94.555509 L 610.70777,94.555509 C 618.02163,94.555509 623.38457,93.119321 626.5558,90.493516 C 629.72359,87.625695 631.43133,83.802303 631.43133,79.501709 C 631.43133,70.181275 625.33437,65.403451 613.38695,65.403451 L 613.38695,65.403451 L 613.38696,65.403442 z"
     id="path20"
     style="fill:#000000" /><path
     class="fil0"
     d="M 614.36395,106.97653 L 601.19971,106.97653 L 601.19971,137.325 L 615.09568,137.325 C 622.40954,137.325 627.77363,136.85005 630.94371,135.89222 C 633.62633,134.69805 635.81924,133.0244 637.52471,130.63379 C 638.98816,128.00685 639.72102,125.37649 639.96304,122.26893 C 639.71988,118.92616 638.74273,116.29922 637.28041,114.38468 C 635.57267,111.75774 633.13661,109.84775 629.96541,108.88991 C 626.55561,107.45714 621.18923,106.97651 614.36397,106.97651 L 614.36395,106.97653 z"
     id="path22"
     style="fill:#000000" /><g
     transform="translate(0,1.186654)"
     id="g3192"><polygon
       style="fill:#000000"
       id="polygon24"
       points="323.652,0 337.824,15.6548 326.71,35.3635 311.655,21.2784 323.652,0 "
       class="fil0"
       transform="matrix(0.956891,0,0,0.956891,6.9159444e-4,7.4254161)" /><path
       style="fill:#000000"
       id="path26"
       d="M 212.27548,62.531046 C 221.21641,80.483374 228.38828,100.54679 226.16695,120.91125 C 223.93654,141.36662 207.36022,157.4931 188.98064,164.97283 L 171.02831,154.14465 C 186.48659,144.06409 206.87268,134.96406 211.09946,115.14044 C 213.8957,102.02844 205.74445,90.797989 199.43725,79.869816 C 198.72371,78.635876 197.2523,76.448653 196.60466,75.21812 L 212.27547,62.531085 L 212.27548,62.531046 z"
       class="fil0" /><path
       style="fill:#000000"
       id="path28"
       d="M 113.57408,65.951071 C 113.62408,72.153705 114.30809,77.457589 115.15912,83.133005 C 115.89993,88.093748 117.69062,91.375157 123.50126,91.512643 C 130.86967,91.685349 131.24007,86.272383 131.98089,80.503804 C 132.44446,76.898573 132.64217,73.209261 132.73648,69.725575 L 147.05626,66.662318 C 147.17897,72.305937 146.6688,80.558289 149.18895,86.129213 C 150.48651,89.002718 153.4475,91.868272 156.78005,91.881908 C 160.14099,91.894406 162.86679,89.320865 163.90757,86.297377 C 165.59713,81.393444 165.3108,73.460301 165.1506,69.406337 L 180.32488,66.021526 C 180.90435,75.490805 181.35657,87.565449 177.77293,97.171103 C 174.7358,105.30986 168.65702,111.96923 159.37976,111.96923 C 153.78045,111.96923 145.62923,109.61044 141.28543,105.84499 C 138.88459,107.45616 133.75454,111.89992 124.86585,111.89992 C 115.97604,111.89992 110.43239,108.36514 106.55679,105.38142 C 94.502642,114.23146 79.159086,110.34103 65.753904,113.54404 C 62.438411,114.33713 60.923825,114.98136 61.319231,118.31163 C 61.41581,119.13312 65.233518,120.42159 66.152718,120.72383 C 72.421253,122.79402 79.745354,122.22137 85.683246,125.64822 C 91.049624,128.7467 91.415482,135.08454 89.994068,140.11009 C 87.551193,148.74538 80.831569,155.43202 72.745055,159.41336 C 63.550749,163.9378 52.940665,164.21617 42.89197,164.21617 C 35.103164,164.21617 25.92591,164.40024 18.638132,161.15746 C 9.8517294,157.24772 3.1468325,148.80897 1.2652977,139.36245 C -2.0229338,122.85311 1.3357434,105.52343 8.4598549,90.385608 L 20.96288,94.446462 C 19.485794,99.166326 17.105403,105.34851 15.836241,111.89432 C 14.244395,120.11602 14.509128,130.78746 20.989012,137.0616 C 26.550817,142.44729 35.297499,144.41183 42.868134,144.74133 C 51.638633,145.12196 61.925958,144.33457 69.086469,138.88297 C 70.265866,137.98649 74.03926,135.1323 73.930184,133.66317 C 73.867691,132.83032 72.518999,132.97235 71.524799,132.93485 C 70.421523,132.89167 69.227361,132.86895 68.109311,132.71215 C 60.810223,131.685 53.133871,130.69081 48.318604,124.61543 C 43.581697,113.36114 48.969659,98.431155 60.643169,93.662488 C 71.614498,89.181224 84.82878,94.371491 95.257074,89.334614 C 95.822914,89.063057 97.434079,88.366556 97.794263,87.857528 C 99.230451,85.827101 99.180453,73.909311 99.611083,69.940414 L 113.57413,65.951136 L 113.57408,65.951071 z"
       class="fil0" /><path
       style="fill:#000000"
       id="path30"
       d="M 263.35432,10.170526 C 263.21229,42.79716 262.53624,75.434033 263.28273,108.01742 C 263.39977,113.127 263.37591,119.66259 264.90866,124.60168 C 266.89137,130.97929 272.50545,131.90418 293.97892,131.90418 C 301.54843,131.90418 313.71967,132.58818 320.16883,127.0582 C 323.23436,124.42785 325.14776,120.5431 324.93983,116.49469 C 316.96469,118.43991 303.33457,122.83822 297.7625,113.82344 C 286.74113,95.989286 292.20865,68.53704 305.06387,53.304866 C 313.54122,44.862733 327.57693,50.775631 332.91839,60.073339 C 341.4037,74.991939 341.79342,92.57041 341.60254,109.25017 C 341.46052,121.54641 341.28781,129.95892 333.47628,139.1112 C 328.69846,144.70936 322.19702,148.91569 315.14789,150.85636 C 308.76005,152.6141 299.06121,152.5107 286.71167,152.5107 C 274.8779,152.5107 268.9889,152.6925 263.57137,150.82796 C 254.44978,147.68971 247.2314,139.176 247.00414,129.35332 C 246.40195,103.28388 246.17698,77.168886 246.22129,51.097146 C 246.23151,45.084254 245.60545,39.033908 245.44638,33.013055 C 245.33163,28.620418 245.10097,24.684543 244.75442,20.91001 L 263.35438,10.17044 L 263.35432,10.170526 z M 311.1915,73.751244 C 305.68651,79.013092 303.35838,89.279958 307.73625,96.226891 C 309.92575,99.700319 319.32573,98.183465 323.35472,96.049641 C 323.98987,90.278765 323.10021,84.246581 321.80605,78.524565 C 320.70619,73.659262 314.65353,70.440348 311.19145,73.751296 L 311.1915,73.751244 z"
       class="fil0" /></g></g>
</svg>
